X:79
T:Bundle and Go
R:jig
Z:Transcribed by Dave Marshall
M:6/8
K:Em
|:E3 EDB,|G3 GAB|A3 ABA|d3 d2e|
dBG GAB|AGE DEF|FGE FED |1~E3 EDB, :|2 ~E3 E2A
|:Bee edB|~d3 def|efe edB|d3 d2e|
dBG GAB|AGE DEF|FGE FED|1 ~E3 E2A:|2 ~E3 EDB,|
